packages/ffe-icons/icons/filled/md/nfc.svg

<svg xmlns="http://www.w3.org/2000/svg" height="24" viewBox="0 -960 960 960" width="24"><path d="M623.845-300.001q15.461 0 25.807-10.347 10.347-10.346 10.347-25.807v-287.69q0-15.461-10.347-25.807-10.346-10.347-25.807-10.347H509.999q-24.922 0-42.46 17.538-17.538 17.539-17.538 42.461v67.386q-14.615 7.923-23.077 20.884-8.461 12.961-8.461 31.73 0 25.692 17.73 43.614 17.731 17.923 43.807 17.923 24.922 0 43.23-17.923 18.307-17.922 18.307-43.614 0-18.769-9.077-31.73-9.076-12.961-22.461-20.884V-600H600v240H360v-240h10.001q12.769 0 21.384-8.615T400-629.999q0-12.769-8.615-21.384-8.615-8.616-21.384-8.616h-33.846q-15.461 0-25.807 10.347-10.347 10.346-10.347 25.807v287.69q0 15.461 10.347 25.807 10.346 10.347 25.807 10.347h287.69Zm-411.536 160q-30.308 0-51.308-21t-21-51.308v-535.382q0-30.308 21-51.308t51.308-21h535.382q30.308 0 51.308 21t21 51.308v535.382q0 30.308-21 51.308t-51.308 21H212.309Z"/></svg>

<svg xmlns="http://www.w3.org/2000/svg" height="24" viewBox="0 -960 960 960" width="24"><path d="M623.84-300q15.47 0 25.81-10.35Q660-320.69 660-336.16v-287.68q0-15.47-10.35-25.81Q639.31-660 623.84-660H510q-24.92 0-42.46 17.54T450-600v67.39q-14.61 7.92-23.08 20.88-8.46 12.96-8.46 31.73 0 25.69 17.73 43.61 17.73 17.93 43.81 17.93 24.92 0 43.23-17.93 18.31-17.92 18.31-43.61 0-18.77-9.08-31.73T510-532.61V-600h90v240H360v-240h10q12.77 0 21.38-8.62Q400-617.23 400-630t-8.62-21.38Q382.77-660 370-660h-33.84q-15.47 0-25.81 10.35Q300-639.31 300-623.84v287.68q0 15.47 10.35 25.81Q320.69-300 336.16-300h287.68ZM212.31-140Q182-140 161-161q-21-21-21-51.31v-535.38Q140-778 161-799q21-21 51.31-21h535.38Q778-820 799-799q21 21 21 51.31v535.38Q820-182 799-161q-21 21-51.31 21H212.31Z"/></svg>
